dist/svgs/crypto-icons/icons/heat.svg

<?xml version="1.0" encoding="UTF-8" standalone="yes"?>
<svg xmlns="http://www.w3.org/2000/svg" xmlns:xlink="http://www.w3.org/1999/xlink" width="512px" height="512px" viewBox="0 0 384 384" version="1.1">
  <g id="surface1">
    <path style=" stroke:none;fill-rule:nonzero;fill:rgb(0%,0%,0%);fill-opacity:1;" d="M 148.746094 382.785156 L 234.914062 382.785156 L 230.316406 195.738281 L 153.347656 195.738281 Z M 154.800781 136.554688 L 228.859375 136.554688 L 225.523438 0.875 L 158.136719 0.875 Z M 101.140625 53.378906 C 65.878906 54.84375 36.480469 81.351562 31.765625 116.625 L 17.039062 226.832031 C 11.625 267.339844 42.875 303.351562 83.605469 303.863281 Z M 366.625 226.832031 L 351.894531 116.625 C 347.179688 81.351562 317.78125 54.839844 282.519531 53.378906 L 300.054688 303.863281 C 340.785156 303.351562 372.039062 267.339844 366.625 226.832031 Z M 366.625 226.832031 "/>
  </g>
</svg>

<svg xmlns="http://www.w3.org/2000/svg" viewBox="0 0 384 384"><path d="M148.746 382.785h86.168l-4.598-187.047h-76.968zm6.055-246.23h74.058L225.523.875h-67.386zm-53.66-83.176c-35.262 1.465-64.66 27.973-69.375 63.246L17.039 226.832c-5.414 40.508 25.836 76.52 66.566 77.031zm265.484 173.453l-14.73-110.207C347.18 81.352 317.78 54.84 282.52 53.379l17.535 250.484c40.73-.511 71.984-36.523 66.57-77.031zm0 0"/></svg>
